!!!COM: Dueto, Antonio
!!!CDT: ~1545-~1602
!!!OTL: Se taccio, il duol s'avanza
!!!PTL: Il primo libro de madrigali a cinque voci
!!!PPP: Venice
!!!PPR: Angelo Gardano
!!!PDT: 1584
!!!PUB-format:
!!!RISM: D 3653
!!!rime: 166
!!!AGN: Madrigal
!!!SCT: Trm0166a
!!!SCA: Trm0166a
!!!original-voices: 5
!!!extant-voices: 4
!!!complete: N
!!!final: C
**kern	**text	**kern	**text	**kern	**text	**kern	**text
*part4	*part4	*part3	*part3	*part2	*part2	*part1	*part1
*staff4	*staff4	*staff3	*staff3	*staff2	*staff2	*staff1	*staff1
*Ivox	*	*Ivox	*	*Ivox	*	*Ivox	*
*I"Basso	*	*I"Tenore	*	*I"Quinto	*	*I"Canto	*
*I'B	*	*I'T	*	*I'V	*	*I'C	*
*>[A,B]	*>[A,B]	*>[A,B]	*>[A,B]	*>[A,B]	*>[A,B]	*>[A,B]	*>[A,B]
*>A	*>A	*>A	*>A	*>A	*>A	*>A	*>A
*oclefC4	*	*oclefC3	*	*oclefG2	*	*oclefG2	*
*clefGv2	*	*clefGv2	*	*clefG2	*	*clefG2	*
*k[]	*	*k[]	*	*k[]	*	*k[]	*
*omet(C)	*	*omet(C)	*	*omet(C)	*	*omet(C)	*
*M4/2	*	*M4/2	*	*M4/2	*	*M4/2	*
=1	=1	=1	=1	=1	=1	=1	=1
!!LO:TX:a:t=Prima parte.
0r	.	2c	Se	2cc	Se	2ee	Se
.	.	2f	tac-	2cc	tac-	2.ff	tac-
.	.	2c	-cio,	2cc	-cio,	.	.
.	.	.	.	.	.	4ee	-cio,
.	.	2r	.	2r	.	2r	.
=2	=2	=2	=2	=2	=2	=2	=2
2c	Se	4r	.	0r	.	4r	.
.	.	4e	<Se	.	.	4cc	<Se
2G	tac-	2.d	tac-	.	.	2b	tac-
2A	-cio,	.	.	.	.	2a	-cio,>
.	.	4c#X	-cio,>	.	.	.	.
2r	.	2r	.	.	.	2r	.
=3	=3	=3	=3	=3	=3	=3	=3
0r	.	2r	.	2.cc	il	1r	.
.	.	2f	il	.	.	.	.
.	.	.	.	2dd	duol	.	.
.	.	2g	duol	.	.	2r	.
.	.	.	.	4ee	s'a-	.	.
.	.	2a	s'a-	8eeL	-van-	4r	.
.	.	.	.	8dd	.	.	.
.	.	.	.	8ee	.	4a	il
.	.	.	.	8ffJ	.	.	.
=4	=4	=4	=4	=4	=4	=4	=4
0r	.	0g	-van-	0gg	.	2b	duol
.	.	.	.	.	.	2cc	s'a-
.	.	.	.	.	.	1dd	-van-
=5	=5	=5	=5	=5	=5	=5	=5
1c	<Se	2g	-za,	2gg	-za,	1ee	-za,
.	.	4r	.	4r	.	.	.
.	.	4e	Se	4cc	Se	.	.
2G	tac-	2.d	tac-	2b	tac-	1r	.
2A	-cio,>	.	.	2a	-cio,	.	.
.	.	4c#X	-cio,	.	.	.	.
=6	=6	=6	=6	=6	=6	=6	=6
2r	.	0r	.	1r	.	4r	.
.	.	.	.	.	.	2a	<il
2d	il	.	.	.	.	.	.
.	.	.	.	.	.	2b	duol
2e	duol	.	.	2r	.	.	.
.	.	.	.	.	.	2cc	s'a-
2f	s'a-	.	.	4r	.	.	.
.	.	.	.	4a	il	[4dd	-van-
=7	=7	=7	=7	=7	=7	=7	=7
0g	-van-	1r	.	2b	duol	8dd]L	.
.	.	.	.	.	.	8bJ	.
.	.	.	.	.	.	4.ee	.
.	.	.	.	2cc	s'a-	.	.
.	.	.	.	.	.	8dd	.
.	.	.	.	.	.	2cc	.
.	.	2r	.	1dd	-van-	.	.
.	.	.	.	.	.	8bL	.
.	.	.	.	.	.	8aJ	.
.	.	4r	.	.	.	2b	.
.	.	4g	Se	.	.	.	.
=8	=8	=8	=8	=8	=8	=8	=8
4c	-za;	2g	par-	4ee	-za;	1cc	-za;>
4c	Se	.	.	4ee	Se	.	.
2c	par-	4e	-lo,	2ee	par-	.	.
.	.	4e	<Se	.	.	.	.
4A	-lo,	2e	par-	2cc	-lo,	4r	.
4A	Se	.	.	.	.	4cc	Se
2A	par-	4c	-lo,>	2r	.	2cc	par-
.	.	4c	<Se	.	.	.	.
=9	=9	=9	=9	=9	=9	=9	=9
1F	lo, ac-	2c	par-	4r	.	4a	-lo,
.	.	.	.	4cc	Se	4ff	Se
.	.	2A	-lo,>	2cc	par-	2ff	par-
2G	-cre-	2r	.	2b	lo, ac-	4dd	lo, ac-
.	.	.	.	.	.	2ee	-cre-
2A	-sco	4r	.	2cc	-cre-	.	.
.	.	4a	ac-	.	.	[4ff	-sco
=10	=10	=10	=10	=10	=10	=10	=10
4B-	l'i-	4f	-cre-	2dd	-sco	4ff]	.
8AL	.	4d	-sco	.	.	2gg	l'i-
8GJ	.	.	.	.	.	.	.
2A	.	2a	l'i-	2cc	l'i-	.	.
.	.	.	.	.	.	4ff#i	.
2G	-ra,	4d	-ra,	4b	-ra,	2gg	-ra,
.	.	4g	<ac-	4dd	ac-	.	.
2r	.	4e	-cre-	2ee	-cre-	2g	ac-
.	.	4c	-sco	.	.	.	.
=11	=11	=11	=11	=11	=11	=11	=11
1r	.	1d	l'i-	4ff#X	-sco	4dd	-cre-
.	.	.	.	2gg	l'i-	4dd	-sco
.	.	.	.	.	.	2dd	l'i-
.	.	.	.	4ff#i	.	.	.
2r	.	2g	-ra,>	1gg	-ra,	2dd	-ra,
2c	Don-	2e	Don-	.	.	2r	.
=12	=12	=12	=12	=12	=12	=12	=12
4c	-na	4e	-na	1r	.	1r	.
2B-	bel-	2d	bel-	.	.	.	.
8A	-la e	8c	-la e	.	.	.	.
8Bni	cru-	8d	cru-	.	.	.	.
1c	-del,	4e	-del,	1ee	Don-	2r	.
.	.	8e	e	.	.	.	.
.	.	8f	cru-	.	.	.	.
.	.	2g	-del,	.	.	4r	.
.	.	.	.	.	.	[4gg	Don-
=13	=13	=13	=13	=13	=13	=13	=13
1r	.	1r	.	4ee	-na	4gg]	.
.	.	.	.	2dd	bel-	4gg	-na
.	.	.	.	.	.	2ff	bel-
.	.	.	.	8cc	-la e	.	.
.	.	.	.	8dd	cru-	.	.
2r	.	2r	.	4ee	-del,	8ee	-la e
.	.	.	.	.	.	8ff	cru-
.	.	.	.	8e	e	4gg	-del,
.	.	.	.	8f	cru-	.	.
2G	<Don-	4r	.	4g	-del,	4r	.
.	.	[4d	Don-	4b	Don-	8b	e
.	.	.	.	.	.	8cc	cru-
=14	=14	=14	=14	=14	=14	=14	=14
4G	-na	4d]	.	4b	-na	2dd	-del,
2F	bel-	4d	-na	2a	bel-	.	.
.	.	2c	bel-	.	.	2r	.
8E	-la e	.	.	8g	-la e	.	.
8F	cru-	.	.	8a	cru-	.	.
1G	-del,>	8B	-la e	4b	-del,	4r	.
.	.	8c	cru-	.	.	.	.
.	.	4d	-del,	8b	e	2b	Don-
.	.	.	.	8cc	cru-	.	.
.	.	2r	.	4dd	-del,	.	.
.	.	.	.	[4dd	<Don-	4b	-na
=15	=15	=15	=15	=15	=15	=15	=15
1r	.	0r	.	4dd]	.	2.a	bel-
.	.	.	.	4dd	-na	.	.
.	.	.	.	2cc	bel-	.	.
.	.	.	.	.	.	8g	-la e
.	.	.	.	.	.	8a	cru-
2r	.	.	.	8b	-la e	2b	-del,
.	.	.	.	8cc	cru-	.	.
.	.	.	.	4dd	-del,	.	.
[2c	<Don-	.	.	8ee	e	4r	.
.	.	.	.	8ff	cru-	.	.
.	.	.	.	4gg	-del,>	[4ee	<Don-
=16	=16	=16	=16	=16	=16	=16	=16
4c]	.	2g	<Don-	4r	.	4ee]	.
4c	-na	.	.	8g	e	4ee	-na
.	.	.	.	8a	cru-	.	.
2B-	bel-	4g	-na	4b-	-del,	2dd	bel-
.	.	2f	bel-	8f	e	.	.
.	.	.	.	8g	cru-	.	.
8A	-la e	.	.	2a	-del,	8cc	-la e
8Bni	cru-	.	.	.	.	8dd	cru-
2c	-del,>	8e	-la e	.	.	4ee	-del,>
.	.	8f	cru-	.	.	.	.
.	.	2g	-del,>	4r	.	4r	.
8C	e	.	.	8e	<e	[4gg	<Don-
8D	cru-	.	.	8f	cru-	.	.
=17	=17	=17	=17	=17	=17	=17	=17
2E	-del,	4r	.	2g	-del,>	4gg]	.
.	.	8B	e	.	.	4gg	-na
.	.	8c	cru-	.	.	.	.
4r	.	4d	-del,	2r	.	4ff	bel-
2c	Don-	2e	Don-	.	.	8ee	-la e
.	.	.	.	.	.	8ff	cru-
.	.	.	.	1r	.	4gg	-del,>
4c	-na	4e	-na	.	.	8g	e
.	.	.	.	.	.	8a	cru-
2B-	bel-	2d	bel-	.	.	4b-	-del,
.	.	.	.	.	.	8f	e
.	.	.	.	.	.	8g	cru-
=18	=18	=18	=18	=18	=18	=18	=18
8A	-la e	8c	-la e	0r	.	4a	-del,
8Bni	cru-	8d	cru-	.	.	.	.
4c	-del,	4e	-del,	.	.	8g	<e
.	.	.	.	.	.	8a	cru-
8B	e	4r	.	.	.	4bni	-del,>
8c	cru-	.	.	.	.	.	.
4d	-del,	2d	che	.	.	4a	che
2r	.	.	.	.	.	2b	mi
.	.	2e	mi	.	.	.	.
2A	che	.	.	.	.	2cc#X	mar-
.	.	[4f#X	mar-	.	.	.	.
=19	=19	=19	=19	=19	=19	=19	=19
2B	mi	4f#]	.	2dd	che	8ddL	-ti-
.	.	.	.	.	.	8ccni	.
.	.	2g	-ti-	.	.	8b	.
.	.	.	.	.	.	8aJ	.
2c	mar-	.	.	2ee	mi	8gL	.
.	.	.	.	.	.	8fJ	.
.	.	4a	-ra,	.	.	4e	.
1d	-ti-	1r	.	4ff#X	mar-	4d	-ra,
.	.	.	.	2gg	-ti-	4dd	mar-
.	.	.	.	.	.	[2dd	-ti-
.	.	.	.	4ff#i	.	.	.
=20	=20	=20	=20	=20	=20	=20	=20
2G	-ra,	1g	Don-	2gg	-ra,	2dd]	.
4r	.	.	.	4r	.	2ee	-ra,
2c	Don-	.	.	2ee	Don-	.	.
.	.	2.g	-na	.	.	1r	.
4c	-na	.	.	4ee	-na	.	.
2B-	bel-	.	.	2dd	bel-	.	.
.	.	[4f	bel-	.	.	.	.
=21	=21	=21	=21	=21	=21	=21	=21
8A	-la e	4f]	.	8cc	-la e	2a	che
8Bni	cru-	.	.	8dd	cru-	.	.
4c	-del,	8e	-la e	2ee	-del,	.	.
.	.	8f	cru-	.	.	.	.
2r	.	4g	-del,	.	.	4b	mi
.	.	4f	che	4a	che	4cc	mar-
2r	.	4f	mi	2b	mi	4dd	-ti-
.	.	4g	mar-	.	.	4g	-ra,
2A	che	2a	-ti-	2cc#X	mar-	2r	.
=22	=22	=22	=22	=22	=22	=22	=22
2B	mi	2d	-ra,	2dd	-ti-	4r	.
.	.	.	.	.	.	4dd	<che
2c	mar-	2r	.	4g	-ra,	2ee	mi
.	.	.	.	4cc	che	.	.
1d	-ti-	2r	.	4b	mi	4ff#X	mar-
.	.	.	.	4b	mar-	2gg	-ti-
.	.	[2d	che	2a	-ti-	.	.
.	.	.	.	.	.	4ff#i	.
=23	=23	=23	=23	=23	=23	=23	=23
2G	-ra,	4d]	.	4g	-ra,	2gg	-ra,>
.	.	4e	mi	2gg	<che	.	.
2D	<che	2f	mar-	.	.	4r	.
.	.	.	.	2ff	mi	4dd	<che
2E	mi	2g	-ti-	.	.	4cc	mi
.	.	.	.	4ee	mar-	4b	mar-
2F#X	mar-	4a	-ra,	2dd	-ti-	2a	-ti-
.	.	4A	<che	.	.	.	.
=24	=24	=24	=24	=24	=24	=24	=24
2.G	-ti-	2.B	mi	2dd	-ra,>	1g	-ra,>
.	.	.	.	4r	.	.	.
8FniL	.	4c	mar-	4cc	che	.	.
8EJ	.	.	.	.	.	.	.
1D	.	1d	-ti-	4b	mi	4r	.
.	.	.	.	4b	mar-	4dd	mar-
.	.	.	.	2a	-ti-	2dd	-ti-
=25	=25	=25	=25	=25	=25	=25	=25
0Gl	-ra.>	0dl	-ra.>	0bl	-ra.	0ddl	-ra.
!!LO:LB:i:g=z
=||26	=||26	=||26	=||26	=||26	=||26	=||26	=||26
*>B	*>B	*>B	*>B	*>B	*>B	*>B	*>B
!!LO:TX:a:t=Seconda parte.
2G	Ma	2d	Ma	0r	.	2b	Ma
4c	pur	4e	pur	.	.	4cc	pur
4.F	pren-	4.f	pren-	.	.	4.cc	pren-
8F	-do	8f	-do	.	.	8cc	-do
4G	spe-	4d	spe-	.	.	4b	spe-
2D	-ran-	2d	-ran-	.	.	2a	-ran-
=27	=27	=27	=27	=27	=27	=27	=27
2G	-za	2d	-za	0r	.	2b	-za
4r	.	4r	.	.	.	4r	.
4A	Che	4c	Che	.	.	4a	Che
4A	l'hu-	4c	l'hu-	.	.	4a	l'hu-
4A	-mil-	4c	-mil-	.	.	4a	-mil-
4D	-t&agrave;	4A	-t&agrave;	.	.	4f#X	-t&agrave;
4G	vi	4B	vi	.	.	4g	vi
=28	=28	=28	=28	=28	=28	=28	=28
4.F	pie-	2c	pie-	1r	.	4.a	pie-
8E	.	.	.	.	.	8g	.
2D	.	2d	.	.	.	2fni	.
1C	-ghi,	2G	-ghi,	4r	.	1e	-ghi,
.	.	.	.	4cc	Ch&eacute;	.	.
.	.	4r	.	4cc	nel	.	.
.	.	4g	Ch&eacute;	4cc	si-	.	.
=29	=29	=29	=29	=29	=29	=29	=29
2r	.	4g	nel	2b-	-len-	2r	.
.	.	4g	si-	.	.	.	.
4r	.	2f	-len-	2a	-tio,	2cc	Ch&eacute;
4A	Ch&eacute;	.	.	.	.	.	.
4A	nel	4e	-tio an-	1r	.	4cc	nel
4A	si-	4f	-cor	.	.	4cc	si-
2G	-len-	4d	son	.	.	2b-	-len-
.	.	[4d	vo-	.	.	.	.
=30	=30	=30	=30	=30	=30	=30	=30
4F	-tio an-	4d]	.	4r	.	4a	-tio an-
2F	-cor	4c	-ci e	4a	<Ch&eacute;	2f	-cor
.	.	2c	pre-	4a	nel	.	.
4F	son	.	.	4a	si-	4f	son
4E	vo-	[1c	-ghi,	4g	-len-	4g	vo-
4F	-ci e	.	.	4f	-tio,>	4a	-ci e
4.F	pre-	.	.	2r	.	[2a	pre-
8G	.	.	.	.	.	.	.
=31	=31	=31	=31	=31	=31	=31	=31
1A	.	2c]	.	2cc	<Ch&eacute;	4a]	.
.	.	.	.	.	.	8gL	.
.	.	.	.	.	.	8fJ	.
.	.	2r	.	4cc	nel	4e	.
.	.	.	.	4cc	si-	4f#X	.
2G	-ghi.	2r	.	2b	-len-	2g	.
2r	.	2c	<Ch&eacute;	4a	-tio an-	2e	-ghi,
.	.	.	.	[4g	-cor	.	.
=32	=32	=32	=32	=32	=32	=32	=32
0r	.	4c	nel	4g]	.	1r	.
.	.	4c	si-	4a	son	.	.
.	.	2B-	-len-	4f	vo-	.	.
.	.	.	.	4g	-ci e	.	.
*	*	*	*	*lig	*	*	*
.	.	4A	-tio an-	1a	pre-	1cc	Ch&eacute;
.	.	4.A	-cor	.	.	.	.
.	.	8GL	.	.	.	.	.
.	.	8A	.	.	.	.	.
.	.	8BniJ	.	.	.	.	.
=33	=33	=33	=33	=33	=33	=33	=33
0r	.	2c	.	1g	.	4cc	nel
*	*	*	*	*Xlig	*	*	*
.	.	.	.	.	.	4cc	si-
.	.	2G	son	.	.	2b	-len-
.	.	2A	vo-	4e	-ghi,	4a	-tio an-
.	.	.	.	2cc	son	2a	-cor
.	.	2F	-ci e	.	.	.	.
.	.	.	.	4dd	vo-	4a	son
=34	=34	=34	=34	=34	=34	=34	=34
1r	.	1G	pre-	4b	-ci e	4g	vo-
.	.	.	.	2cc	pre-	4g	-ci e
.	.	.	.	.	.	2g	pre-
.	.	.	.	4b	.	.	.
1C	E	2c	-ghi.>	2cc	-ghi.	1g	-ghi.
.	.	4r	.	4r	.	.	.
.	.	4e	E	4cc	E	.	.
=35	=35	=35	=35	=35	=35	=35	=35
2F	pre-	2f	pre-	2cc	pre-	1r	.
2G	-g'a-	2d	-g'a-	2b	-g'a-	.	.
2A	-mor,	2c#X	-mor	2a	-mor,	2r	.
4r	.	2r	.	4r	.	4r	.
4A	<E	.	.	4ee	<E	4cc	E
=36	=36	=36	=36	=36	=36	=36	=36
2c	pre-	0r	.	2ee	pre-	2cc	pre-
2G	-g'a-	.	.	2dd	-g'a-	2b	-g'a-
4.A	-mor>	.	.	4.cc	-mor>	2a	-mor
8B	.	.	.	8dd	.	.	.
4c	.	.	.	4ee	.	4g	che
4c	che	.	.	4ee	che	[4gg	spie-
=37	=37	=37	=37	=37	=37	=37	=37
1d	spie-	1r	.	1dd	spie-	4gg]	.
.	.	.	.	.	.	8ff#iL	.
.	.	.	.	.	.	8eeJ	.
.	.	.	.	.	.	2ff#i	.
2G	-ghi	2.d	Nel	2dd	-ghi	2gg	-ghi
4G	Nel	.	.	4b	Nel	4g	Nel
[4G	mio	[4d	mio	[4b	mio	4g	mio
=38	=38	=38	=38	=38	=38	=38	=38
4G]	.	4d]	.	4b]	.	4g	.
4G	do-	4d	do-	4b	do-	4g	do-
4F	-glio-	4f	-glio-	4cc	-glio-	4a	-glio-
4F	-so a-	4f	-so a-	4cc	-so a-	4a	-so a-
2B-	-spet-	2f	-spet-	2dd	-spet-	2b-	-spet-
2F	-to	2f	-to	2cc	-to	2a	-to
=39	=39	=39	=39	=39	=39	=39	=39
4c	Con	4g	Con	4ee	Con	4cc	Con
2c	le-	2g	le-	2ee	le-	2cc	le-
4A	-tre	4a	-tre	4ee	-tre	4cc	-tre
4B-	di	4f	di	4dd	di	4b-	di
4c	pie-	4e	pie-	2cc	pie-	4g	pie-
2G	-t&agrave;	2d	-t&agrave;	.	.	2g	-t&agrave;
.	.	.	.	4b	-t&agrave;	.	.
=40	=40	=40	=40	=40	=40	=40	=40
2C	l'oc-	4c	l'oc-	2g	l'oc-	2e	l'oc-
.	.	2c	-cul-	.	.	.	.
4F	-cul-	.	.	4a	-cul-	2.f	-cul-
4D	-to af-	2d	-to af-	4a	-to af-	.	.
4.E	-fet-	.	.	1g	-fet-	.	.
.	.	2c	-fet-	.	.	4e	-to af-
8F	.	.	.	.	.	.	.
2G	.	.	.	.	.	2d	-fet-
.	.	4B	.	.	.	.	.
=41	=41	=41	=41	=41	=41	=41	=41
2C	-to.	2c	-to.	1g	-to.	2e	-to.
4r	.	4r	.	.	.	4r	.
4c	E	4e	E	.	.	4cc	E
2F	pre-	2f	pre-	1r	.	2cc	pre-
2G	-go a-	2d	-go a-	.	.	2b	-go a-
=42	=42	=42	=42	=42	=42	=42	=42
2A	-mor,	2c#X	-mor,	2r	.	1a	-mor
4r	.	4r	.	4r	.	.	.
4A	<E	4e	<E	4cc#X	E	.	.
2d	pre-	2f	pre-	2dd	pre-	1r	.
2d	-go a-	2f	-go a-	2dd	-go a-	.	.
=43	=43	=43	=43	=43	=43	=43	=43
4c	-mor>	2.g	-mor>	2ee	-mor	0r	.
4c	che	.	.	.	.	.	.
4.c	spie-	.	.	4ee	che	.	.
.	.	4g	che	2gg	spie-	.	.
8B	.	.	.	.	.	.	.
1A	.	1a	spie-	.	.	.	.
.	.	.	.	8ff#iL	.	.	.
.	.	.	.	8eeJ	.	.	.
.	.	.	.	2ff#i	.	.	.
=44	=44	=44	=44	=44	=44	=44	=44
2G	-ghi	2d	-ghi	2gg	-ghi	0r	.
4G	Nel	4B	Nel	4g	Nel	.	.
2G	mio	2B	mio	2g	mio	.	.
4G	do-	4B	do-	4g	do-	.	.
4F	-glio-	4c	-glio-	4a	-glio-	.	.
4F	-so a-	4c	-so a-	4a	-so a-	.	.
=45	=45	=45	=45	=45	=45	=45	=45
2B-	-spet-	2d	-spet-	2b-	-spet-	1r	.
2F	-to	2c	-to	2a	-to	.	.
1r	.	4c	Con	4cc	Con	4g	Con
.	.	2c	le-	2cc	le-	2g	le-
.	.	4F	-tre	4cc	-tre	4a	-tre
=46	=46	=46	=46	=46	=46	=46	=46
1r	.	4G	di	4b-	di	4g	di
.	.	4G	pie-	4b-i	pie-	4g	pie-
.	.	1A	-t&agrave;,	2a	-t&agrave;,	2e	-t&agrave;,
4D	Con	.	.	4f#X	Con	4a	<Con
2D	le-	.	.	2f#i	le-	2a	le-
.	.	2r	.	.	.	.	.
4G	-tre	.	.	4g	-tre	4b	-tre
=47	=47	=47	=47	=47	=47	=47	=47
4F	di	2r	.	4a	di	4cc	di
4F	pie-	.	.	4a	pie-	4cc	pie-
2c	-t&agrave;	4r	.	2.g	-t&agrave;	2.cc	-t&agrave;>
.	.	4A	l'oc-	.	.	.	.
4C	l'oc-	4.c	-cul-	.	.	.	.
2F	-cul-	.	.	4fni	l'oc-	4a	l'oc-
.	.	8B	.	.	.	.	.
.	.	8AL	.	4f	-cul-	4a	-cul-
.	.	8GJ	.	.	.	.	.
4D	-to af-	4F	.	4f	-to af-	4a	-to af-
=48	=48	=48	=48	=48	=48	=48	=48
4.E	-fet-	2.G	-t'af-	2e	-fet-	4.g	-fet-
8D	.	.	.	.	.	8f	.
8CL	.	.	.	2g	-to,	8eL	.
8D	.	.	.	.	.	8f	.
8E	.	4.g	-fet-	.	.	8g	.
8FJ	.	.	.	.	.	8aJ	.
1G	.	.	.	4r	.	8bL	.
.	.	8f	.	.	.	8gJ	.
.	.	4e	.	4g	af-	2cc	.
.	.	2d	.	2g	-fet-	.	.
.	.	.	.	.	.	4b	.
=49	=49	=49	=49	=49	=49	=49	=49
0Cl	-to.	0cl	-to.	0gl	-to.	0ccl	-to.
==	==	==	==	==	==	==	==
*-	*-	*-	*-	*-	*-	*-	*-
!!!system-decoration: [*]
!!!RDF**kern: i = editorial accidental
!!!RDF**kern: l = terminal long
!!!ENC: Emiliano Ricciardi
!!!END: 2012
!!!EED: Ricciardi, Emiliano
!!!EEV: 2013/08/18
!!!YEC: Copyright 2013 Emiliano Ricciardi, All Rights Reserved
!!!ONB: Translated from MusicXML on 2013/08/18 and edited by Craig Stuart Sapp
!!@@BEGIN:	VERSEDATA
!!@SOLERTI:	166
!!@CATALOGNUM:	Trm0166
!!@LAST_MODIFIED: 2020/07/12
!!@TITLE:		Se taccio, il duol s'avanza
!!@GENRE:		madrigale
!!@MANUSRC:	Ts<sub>2</sub>, V<sub>13/TS2</sub>
!!@PRINTSRC:	11, 12, 13, 22, 23, 26, 31, 35, 69, 93, 141, 145, 166, 169
!!@@BEGIN:	VERSES
!!@ABOUTIT:	Nel medesimo soggetto (i.e., "Dice che la signora Laura desiderando ch'egli celi l'amor suo desidera cosa impossibile." Rime 164-165)
!!@ABOUTEN:	On the same subject (i.e., "He says that lady Laura, in wishing that he hide his love, wishes for something impossible." Rime 164-165)
!!@EDITOR:	Solerti, Angelo
!!@EDITION_TITLE: Le Rime di Torquato Tasso
!!@EDITION_LOC:	Bologna
!!@EDITION_PUB:	Romagnoli-Dall’Acqua
!!@EDITION_DATE:  1898-1902
!!@EDITION_VOL:	2
!!@EDITION_PAGE:  248
!!@TRANSLATOR:	Emiliano Ricciardi and Amyrose McCue Gill
!!@VERSE:
!!	Se taccio, il duol s'avanza;
!!	Se parlo, accresco l'ira,
!!	Donna bella e crudel, che mi martira.
!!	Ma prendo al fin speranza
!!	Che l'umiltà vi pieghi,
!!	Ché nel silenzio ancor son voci e prieghi.
!!	E prego Amor che spieghi
!!	Nel mio doglioso aspetto
!!	Con lettre di pietà l'occulto affetto.
!!@TVERSE:
!!	If I am silent, the pain advances;
!!	If I speak, I increase the anger,
!!	Beautiful and cruel woman who torments me.
!!	But in the end I take hope
!!	That humility might persuade you,
!!	For in my silence there are still words and prayers.
!!	And I beg Love that he display
!!	In my doleful appearance,
!!	With letters of pity, my concealed affection.
!!@@END:		VERSES
!!@OTHER_CRIT_ED:   None
!!@ATTRIBUTION_ABOUT:	Secure
!!		<br>
!!		Among other sources (see Literary Sources), his poem survives—with Tasso's autograph annotations appearing alongside it—in a copy of the edition, <i>Rime et prose del Signor Torquato Tasso. Parte terza. Novamente poste in luce</i>
!!(Venice: Giulio Vasalini, 1583)
!!@DATING:
!!@DEDICATEE:	Peperara, Laura ?
!!@COMMENTARY:
!!@@END:		VERSEDATA
!!@@BEGIN:	SETTING
!!@CATALOGNUM:	Trm0166a
!!@RIMETITLE:	Se taccio, il duol s'avanza
!!@SOLERTI:	166
!!@COMPOSER:	Dueto, Antonio
!!@PRINCEPSTITLE:	Il primo libro de madrigali a cinque voci
!!@PRINCEPSLOC:	Venetia
!!@NORMLOC:	Venice
!!@NORMPUB:	Angelo Gardano
!!@NORMPUBSHORT:	Gardano
!!@PRINCEPSPUB:	Gardano
!!@PRINCEPSYEAR:	1584
!!@PRINCEPSRISM:	D 3653
!!@REPRINTS:	
!!@OVOICES:	5
!!@EXTANTVOICES:	4
!!@PARTBOOKS:	
!!@EXTPARTBOOKS:	
!!@OCLEFS:	G2,G2,C3,C4
!!@OMENSURATION:	C
!!@OKEYSIG:	-
!!@FINAL:	C
!!@TIMPEDITOR:	Ricciardi, Emiliano
!!@NOTE:		
!!@@END:		SETTING
